X: 43619
T: Zahirah's
R: waltz
M: 3/4
K: Gmajor
|:GA|"G"B3 AG2|"Am7"E4 D2|"G"G3AB2|"D"A4Bc|
"Bm"d3Dd2|"Em"B4G2|"Bm"d3Dd2|"Em"B4AB|
"Am7"c3BA2|"Em"G4E2|"Am7"c3BA2|"D"F4GA|
"G"B3AG2|"C"E4D2|"Am7"G3GG2|"G"G4:|
|:AB|"C"c3BA2|"G"B3AG2|"D"A3GF2|"G"G4AB|
"C"c3Bc2|"G"d3Dd2|"Em"B3AG2|"D"A4GA|
"G"B3AG2|"Bm"B3dd2|"Em"B3AG2|"Am7"E4GA|
"G"B3AG2|"C"E4D2|"Am7"G3GG2|"G"G4:|

